projects/vfh1/img/icons-service/Water.svg

<svg viewBox="0 0 33 28" fill="none" xmlns="http://www.w3.org/2000/svg">
<path d="M16.9561 3.70751C16.7793 3.70752 16.6066 3.76 16.4597 3.8583C16.3129 3.95661 16.1985 4.09632 16.1311 4.2597C16.0638 4.42309 16.0464 4.60281 16.0813 4.77606C16.1162 4.94931 16.2018 5.10829 16.3272 5.23285C16.4526 5.35741 16.6121 5.44193 16.7856 5.47571C16.959 5.50948 17.1386 5.49099 17.3016 5.42256C17.4645 5.35413 17.6035 5.23886 17.7008 5.09135C17.7982 4.94385 17.8495 4.77077 17.8484 4.59404C17.8484 4.47713 17.8253 4.36137 17.7804 4.25344C17.7355 4.1455 17.6696 4.04751 17.5867 3.96511C17.5038 3.88271 17.4053 3.81753 17.2971 3.77332C17.1889 3.72911 17.073 3.70675 16.9561 3.70751ZM17.0778 6.17009L15.9189 6.01365C15.8431 6.0053 15.767 6.02657 15.7066 6.073C15.6461 6.11943 15.6059 6.18743 15.5944 6.2628L15.2468 8.89921C15.241 8.94003 15.244 8.98161 15.2556 9.02118C15.2671 9.06074 15.287 9.09738 15.3139 9.12864C15.3408 9.15991 15.374 9.18508 15.4114 9.20247C15.4488 9.21986 15.4894 9.22907 15.5307 9.22949H16.6895C16.7604 9.22877 16.8286 9.20263 16.8818 9.15583C16.9349 9.10904 16.9695 9.0447 16.9792 8.97454L17.3095 6.49458C17.3202 6.42274 17.3035 6.34951 17.2627 6.28942C17.2219 6.22932 17.16 6.18674 17.0893 6.17009H17.0778ZM23.3646 2.25894L22.9416 1.18119C22.912 1.11067 22.8562 1.05436 22.786 1.02411C22.7158 0.993853 22.6365 0.992007 22.565 1.01895L18.1903 2.75725C18.1197 2.78683 18.0634 2.8426 18.0332 2.91284C18.0029 2.98307 18.0011 3.0623 18.028 3.13387L18.4568 4.21162C18.4708 4.24702 18.4917 4.2793 18.5183 4.30663C18.5448 4.33395 18.5765 4.35577 18.6115 4.37084C18.6464 4.38591 18.6841 4.39393 18.7221 4.39445C18.7602 4.39496 18.7981 4.38797 18.8334 4.37386L23.2023 2.63556C23.2388 2.62265 23.2723 2.60259 23.3008 2.57654C23.3294 2.55049 23.3524 2.51899 23.3686 2.48389C23.3848 2.44879 23.3938 2.4108 23.3951 2.37217C23.3964 2.33353 23.39 2.29504 23.3762 2.25894H23.3646Z" fill="#42474D"/>
<path d="M21.9682 6.62204H20.8093C20.7369 6.6219 20.6672 6.64942 20.6145 6.69896C20.5617 6.7485 20.5298 6.81633 20.5254 6.88857L20.2647 10.6781H10.9938L10.733 6.88857C10.7286 6.81633 10.6967 6.7485 10.644 6.69896C10.5912 6.64942 10.5215 6.6219 10.4491 6.62204H9.29024C9.25068 6.62197 9.21153 6.62999 9.1752 6.64563C9.13887 6.66126 9.10612 6.68418 9.07898 6.71295C9.05184 6.74172 9.03088 6.77574 9.01738 6.81292C9.00389 6.8501 8.99815 6.88966 9.00052 6.92914L10.1594 24.1614C10.1991 24.7486 10.4607 25.2987 10.8912 25.7001C11.3216 26.1014 11.8886 26.324 12.4771 26.3227H18.7755C19.3641 26.324 19.9311 26.1014 20.3615 25.7001C20.7919 25.2987 21.0535 24.7486 21.0932 24.1614L22.2521 6.92914C22.2545 6.89014 22.2489 6.85106 22.2358 6.81427C22.2226 6.77748 22.2022 6.74372 22.1756 6.71503C22.1491 6.68635 22.1171 6.66332 22.0814 6.64734C22.0458 6.63135 22.0072 6.62275 21.9682 6.62204ZM13.3694 23.8543H13.3115C13.1291 23.8533 12.9538 23.7836 12.8206 23.659C12.6874 23.5344 12.6061 23.3641 12.593 23.1822L12.0136 15.6496C12.0015 15.5523 12.0093 15.4537 12.0365 15.3595C12.0637 15.2654 12.1098 15.1778 12.1718 15.1019C12.2338 15.0261 12.3106 14.9637 12.3975 14.9184C12.4844 14.8731 12.5796 14.8459 12.6773 14.8384C12.775 14.8309 12.8731 14.8434 12.9659 14.875C13.0586 14.9066 13.144 14.9567 13.2169 15.0222C13.2897 15.0877 13.3485 15.1674 13.3896 15.2563C13.4308 15.3452 13.4535 15.4415 13.4563 15.5395L14.0358 23.0721C14.0437 23.1673 14.0327 23.2631 14.0035 23.354C13.9742 23.4449 13.9273 23.5291 13.8653 23.6018C13.8034 23.6745 13.7277 23.7343 13.6426 23.7776C13.5575 23.8209 13.4647 23.847 13.3694 23.8543Z" fill="#42474D"/>
</svg>

<svg viewBox="0 0 33 28" fill="none" xmlns="http://www.w3.org/2000/svg"><path d="M16.956 3.708a.893.893 0 100 1.785.893.893 0 000-1.785zm.122 2.462l-1.16-.156a.295.295 0 00-.324.249l-.347 2.636a.289.289 0 00.284.33h1.158a.296.296 0 00.29-.254l.33-2.48a.29.29 0 00-.22-.325h-.011zm6.287-3.911l-.423-1.078a.296.296 0 00-.377-.162L18.19 2.757a.295.295 0 00-.162.377l.429 1.078a.288.288 0 00.376.162l4.37-1.738a.289.289 0 00.173-.377h-.011z" fill="#42474D"/><path d="M21.968 6.622H20.81a.284.284 0 00-.284.267l-.26 3.79h-9.271l-.261-3.79a.284.284 0 00-.284-.267H9.29a.29.29 0 00-.29.307l1.16 17.232a2.317 2.317 0 002.317 2.162h6.299a2.318 2.318 0 002.317-2.162l1.16-17.232a.29.29 0 00-.285-.307zM13.37 23.854h-.057a.724.724 0 01-.719-.672l-.58-7.532a.723.723 0 111.443-.11l.58 7.532a.726.726 0 01-.667.782z" fill="#42474D"/></svg>
